src/icons/barcode.icon.svg

<svg xmlns="http://www.w3.org/2000/svg" viewBox="0 0 24 24"><path d="M2 4h3v16H2V4zm12 0h3v16h-3V4zm4 0h1v16h-1V4zM9 4h4v16H9V4zM6 4h2v16H6V4zm14 0h2v16h-2V4z" fill="currentColor" fill-rule="evenodd"/></svg>

<svg width="24px" height="24px" viewBox="0 0 24 24" version="1.1" xmlns="http://www.w3.org/2000/svg" xmlns:xlink="http://www.w3.org/1999/xlink">
    <!-- Generator: Sketch 49.2 (51160) - http://www.bohemiancoding.com/sketch -->
    <title>IconBarCode</title>
    <desc>Created with Sketch.</desc>
    <defs></defs>
    <g id="Page-1" stroke="none" stroke-width="1" fill="none" fill-rule="evenodd">
        <g id="IconBarCode">
            <path d="M2,4 L5,4 L5,20 L2,20 L2,4 Z M14,4 L17,4 L17,20 L14,20 L14,4 Z M18,4 L19,4 L19,20 L18,20 L18,4 Z M9,4 L13,4 L13,20 L9,20 L9,4 Z M6,4 L8,4 L8,20 L6,20 L6,4 Z M20,4 L22,4 L22,20 L20,20 L20,4 Z" id="Combined-Shape" fill="currentColor"></path>
        </g>
    </g>
</svg>
